X: 1
T:Halling efter Per Myhr
R:Halling
M:2/4
L:1/16
B:E \"Overg\aa{}rd nr 710
A:W.H\"arjedalen
K:Dm
e2|:\
a2ab a2af | a2ge f2f>g |\
a2ab a2af |1 a2ge f3g :|2a2ge f3e ||
|:\
d2df e2e^c | A2A^c e2af |\
d2df (fe)(e^c) | A2A^c e2af | \
d2df fe^ce |1 d4 d3f :|2 d4[D4d4]|]
